X:105
T:Reel 105
M:4/4
K:Gmaj
L:1/8
dc|BGG2 AGED|BGGd Bdgd|BGG2 AGED|EAAB A2dc|BGG2 AGED|BGGd Bdgd|BGG2 AGEF|GBAG FG2:|Bd|gfgd eddB|cBBG AGE2|DGGG AcBA|GE2E D2cd|dggf edBd|cBcd e2d2|BGBG EGDE|D2GB A2G2|
